!!!OTL: Der Honef di wor gor klin, gor klin, de Kegder dae woren gor schin, gor schin
!!!ARE: Europa, Suedosteuropa, Rumaenien, Siebenbuergen
!!!SCT: D0200
!!!YEM: Copyright 1995, estate of Helmut Schaffrath.
**kern
*ICvox
*Ivox
*M6/8
*k[f#c#]
*D:
{8a
=1
8dd
8cc#
8b
4a
8f#
=2
4e
8f#
4d}
{8a
=3
8dd
8cc#
8b
4a
8f#
=4
4e
8f#
4d}
{8d
=5
8.g
16a
8b
4a
8d
=6
4g
8b
4a}
{8a
=7
8dd
8cc#
8b
8a
8b
8a
=8
8g
8f#
8e
8d
8r}
==
!!!AGN: Scherz - Lied
!! Inzipit = Transposition zum Lied
!!!ONB: ESAC (Essen Associative Code) Database: DVA
!!!AMT: compound duple
!!!AIN: vox
!!!EED: Helmut Schaffrath
!!!EEV: 1.0
*-
